assets/images/land.svg

<?xml version="1.0" encoding="utf-8"?>
<!-- Generator: Adobe Illustrator 16.0.4, SVG Export Plug-In . SVG Version: 6.00 Build 0)  -->
<!DOCTYPE svg PUBLIC "-//W3C//DTD SVG 1.1//EN" "http://www.w3.org/Graphics/SVG/1.1/DTD/svg11.dtd">
<svg version="1.1" id="Layer_1" xmlns="http://www.w3.org/2000/svg" xmlns:xlink="http://www.w3.org/1999/xlink" x="0px" y="0px"
	 width="800px" height="300px" viewBox="0 0 800 300" enable-background="new 0 0 800 300" xml:space="preserve">
<g id="flagLeft">
	<rect id="flagPoleLeft" x="65" y="83" fill="#FFFFFF" width="4" height="144"/>
	<path id="leftGreenFlag2" fill="#F4A0A0" d="M28.5,108.83l41-15.33v32L28.5,108.83z"/>
	<path id="leftGreenFlag" fill="#633492" d="M28.5,88.83l41-15.33v32L28.5,88.83z"/>
</g>
<g id="flagRight">
	<rect id="flagPoleLeft2" x="725" y="83" fill="#FFFFFF" width="4" height="144"/>
	<path id="leftGreenFlag3" fill="#633492" d="M688.5,108.83l41-15.33v32L688.5,108.83z"/>
	<path id="leftGreenFlag4" fill="#F4A0A0" d="M688.5,88.83l41-15.33v32L688.5,88.83z"/>
</g>
<g id="brownHouse">
	<rect id="rectangle15" x="411" y="37" fill="#CA8A65" width="23" height="23"/>
	<rect id="rectangle16" x="414" y="41" fill="#C6F7FB" width="6" height="6"/>
	<rect id="rectangle17" x="426" y="41" fill="#C6F7FB" width="6" height="6"/>
	<rect id="rectangle18" x="414" y="51" fill="#C6F7FB" width="6" height="6"/>
	<rect id="rectangle19" x="426" y="51" fill="#70595E" width="6" height="9"/>
	<path id="polygon2" fill="#70595E" d="M422.5,25.38l15.44,12.41H407.06L422.5,25.38z"/>
	
		<linearGradient id="oval10_1_" gradientUnits="userSpaceOnUse" x1="225.4985" y1="369.0049" x2="225.4985" y2="348.9961" gradientTransform="matrix(1 0 0 -1 204 379)">
		<stop  offset="0" style="stop-color:#E0EBE8"/>
		<stop  offset="1" style="stop-color:#FFFFFF"/>
	</linearGradient>
	<path id="oval10" fill="url(#oval10_1_)" d="M427.01,19.3c0.09-5.51,1.29-9.66,2.66-9.28c1.38,0.39,2.42,5.17,2.32,10.68
		c-0.09,5.51-1.29,9.66-2.66,9.28C428.02,29.61,427,25.25,427,20"/>
	<rect id="rectangle20" x="426" y="26" fill="#70595E" width="6.5" height="9"/>
</g>
<g id="hills">
	<path id="backHill" fill="#633492" d="M212,231c0-98.86,84.62-179,189-179s189,80.14,189,179H401H212z"/>
	<path id="whiteHill" fill="#FFFFFF" d="M333,383c0-123.71,104.09-224,232.5-224S798,259.29,798,383H565.5H333z"/>
	<path id="leftHill" fill="#633492" d="M3,368c0-129.79,113.94-235,254.5-235C398.06,133,512,238.21,512,368H257.5H3z"/>
</g>
<g id="yellowTree">
	<ellipse id="oval" fill="#B63492" cx="104" cy="215.5" rx="12" ry="5.5"/>
	<path id="bezier" fill="#F6D546" d="M89.5,201.5l13.38-56l15.62,56H89.5z"/>
	<rect id="rectangle" x="103" y="178" fill="#AF946C" width="2" height="37"/>
	<path id="bezier2" fill="#AF946C" d="M103.5,187.34l5.73-5.84l1.27,1.3l-6.36,6.479l-0.43,0.221L103.5,187.34z"/>
	<path id="bezier3" fill="#AF946C" d="M103.5,195.34l5.73-5.84l1.27,1.3l-6.36,6.479l-0.43,0.221L103.5,195.34z"/>
	<path id="bezier4" fill="#AF946C" d="M104.5,191.34l-5.73-5.84l-1.27,1.3l6.36,6.479l0.43,0.221L104.5,191.34z"/>
</g>
<g id="yellowTree2">
	<ellipse id="oval3" fill="#B63492" cx="178.25" cy="187" rx="10.25" ry="4"/>
	<path id="bezier9" fill="#F4A0A0" d="M163.5,175.3l13.38-50.85l15.62,50.85H163.5z"/>
	<rect id="rectangle3" x="177" y="157" fill="#AF946C" width="2" height="30"/>
	<path id="bezier10" fill="#AF946C" d="M177.5,162.439l5.73-5.299l1.27,1.18l-6.36,5.89l-0.43,0.19L177.5,162.439z"/>
	<path id="bezier11" fill="#AF946C" d="M177.5,169.7l5.73-5.3l1.27,1.18l-6.36,5.89l-0.43,0.19L177.5,169.7z"/>
	<path id="bezier12" fill="#AF946C" d="M178.5,166.07l-5.73-5.301l-1.27,1.181l6.36,5.89l0.43,0.19L178.5,166.07z"/>
</g>
<g id="yellowTree3">
	<ellipse id="oval4" fill="#E0EBE8" cx="602.75" cy="195" rx="10.75" ry="4"/>
	<path id="bezier13" fill="#F4A0A0" d="M588.5,183.3l13.38-50.85l15.62,50.85H588.5z"/>
	<rect id="rectangle4" x="602" y="165" fill="#AF946C" width="2" height="30"/>
	<path id="bezier14" fill="#AF946C" d="M602.5,170.439l5.73-5.299l1.27,1.18l-6.36,5.89l-0.43,0.19L602.5,170.439z"/>
	<path id="bezier15" fill="#AF946C" d="M602.5,177.7l5.73-5.3l1.27,1.18l-6.36,5.891l-0.43,0.189L602.5,177.7z"/>
	<path id="bezier16" fill="#AF946C" d="M603.5,174.07l-5.73-5.301l-1.27,1.181l6.36,5.89l0.43,0.19L603.5,174.07z"/>
</g>
<g id="yellowTree4">
	<ellipse id="oval5" fill="#E0EBE8" cx="679" cy="211" rx="10" ry="4"/>
	<path id="bezier17" fill="#F6D546" d="M664.5,197.5l13.38-56l15.62,56H664.5z"/>
	<rect id="rectangle5" x="678" y="174" fill="#AF946C" width="2" height="37"/>
	<path id="bezier18" fill="#AF946C" d="M678.5,183.34l5.73-5.84l1.27,1.3l-6.36,6.479l-0.43,0.221L678.5,183.34z"/>
	<path id="bezier19" fill="#AF946C" d="M678.5,191.34l5.73-5.84l1.27,1.3l-6.36,6.479l-0.43,0.221L678.5,191.34z"/>
	<path id="bezier20" fill="#AF946C" d="M679.5,187.34l-5.73-5.84l-1.27,1.3l6.36,6.479l0.43,0.221L679.5,187.34z"/>
</g>
<g id="darkGreenTree2">
	<ellipse id="oval6" fill="#E0EBE8" cx="645" cy="249" rx="12" ry="4"/>
	<path id="bezier21" fill="#633492" d="M627.5,238.51l16.38-62.02L663,238.51H627.5z"/>
	<rect id="rectangle6" x="644" y="216" fill="#AF946C" width="2" height="33"/>
	<path id="bezier22" fill="#AF946C" d="M644.5,222.75l5.73-5.76l1.27,1.279l-6.36,6.41l-0.43,0.211L644.5,222.75z"/>
	<path id="bezier23" fill="#AF946C" d="M644.5,230.65l5.73-5.76l1.27,1.279l-6.36,6.41l-0.43,0.21L644.5,230.65z"/>
	<path id="bezier24" fill="#AF946C" d="M645.5,226.7l-5.73-5.761l-1.27,1.281l6.36,6.409l0.43,0.21L645.5,226.7z"/>
</g>
<g id="yellowTree5">
	<ellipse id="oval2" fill="#853492" cx="143" cy="199.5" rx="12" ry="5.5"/>
	<path id="bezier5" fill="#B63492" d="M127.5,185.5l14.77-69l17.23,69H127.5z"/>
	<rect id="rectangle2" x="142" y="162" fill="#AF946C" width="2" height="37"/>
	<path id="bezier6" fill="#AF946C" d="M142.5,171.34l5.73-5.84l1.27,1.3l-6.36,6.48l-0.43,0.22L142.5,171.34z"/>
	<path id="bezier7" fill="#AF946C" d="M142.5,179.34l5.73-5.84l1.27,1.3l-6.36,6.479l-0.43,0.221L142.5,179.34z"/>
	<path id="bezier8" fill="#AF946C" d="M143.5,175.34l-5.73-5.84l-1.27,1.3l6.36,6.48l0.43,0.22L143.5,175.34z"/>
</g>
<g id="yellowTree6">
	<ellipse id="oval7" fill="#B63492" cx="349" cy="90.5" rx="12" ry="5.5"/>
	<path id="bezier25" fill="#B63492" d="M333.5,76.5l14.77-69l17.23,69H333.5z"/>
	<rect id="rectangle7" x="348" y="53" fill="#AF946C" width="2" height="37"/>
	<path id="bezier26" fill="#AF946C" d="M348.5,62.34l5.73-5.84l1.27,1.3l-6.36,6.48l-0.43,0.22L348.5,62.34z"/>
	<path id="bezier27" fill="#AF946C" d="M348.5,70.34l5.73-5.84l1.27,1.3l-6.36,6.48l-0.43,0.22L348.5,70.34z"/>
	<path id="bezier28" fill="#AF946C" d="M349.5,66.34l-5.73-5.84l-1.27,1.3l6.36,6.48l0.43,0.22L349.5,66.34z"/>
</g>
<g id="yellowTree7">
	<ellipse id="oval8" fill="#B63492" cx="492.25" cy="104" rx="10.25" ry="4"/>
	<path id="bezier29" fill="#B63492" d="M477.5,92.3l13.38-50.85L506.5,92.3H477.5z"/>
	<rect id="rectangle8" x="491" y="74" fill="#AF946C" width="2" height="30"/>
	<path id="bezier30" fill="#AF946C" d="M491.5,79.44l5.73-5.3l1.27,1.18l-6.36,5.89l-0.43,0.19L491.5,79.44z"/>
	<path id="bezier31" fill="#AF946C" d="M491.5,86.7l5.73-5.3l1.27,1.18l-6.36,5.89l-0.43,0.19L491.5,86.7z"/>
	<path id="bezier32" fill="#AF946C" d="M492.5,83.07l-5.73-5.3l-1.27,1.18l6.36,5.89l0.43,0.19L492.5,83.07z"/>
</g>
<g id="blueHouse">
	<rect id="rectangle9" x="204" y="121" fill="#6DA0AB" width="30" height="30"/>
	<rect id="rectangle10" x="208" y="126" fill="#C6F7FB" width="8" height="8"/>
	<rect id="rectangle11" x="223" y="126" fill="#C6F7FB" width="8" height="8"/>
	<rect id="rectangle12" x="208" y="139" fill="#C6F7FB" width="8" height="8"/>
	<rect id="rectangle13" x="223" y="139" fill="#70595E" width="8" height="12"/>
	<path id="polygon" fill="#70595E" d="M219,106l19.92,16.12h-39.84L219,106z"/>
	
		<linearGradient id="oval9_1_" gradientUnits="userSpaceOnUse" x1="23.9995" y1="293.0029" x2="23.9995" y2="266.999" gradientTransform="matrix(1 0 0 -1 204 379)">
		<stop  offset="0" style="stop-color:#E0EBE8"/>
		<stop  offset="1" style="stop-color:#FFFFFF"/>
	</linearGradient>
	<path id="oval9" fill="url(#oval9_1_)" d="M225.01,98.09c0.11-7.16,1.55-12.56,3.2-12.06s2.9,6.71,2.78,13.88
		c-0.11,7.16-1.55,12.56-3.2,12.06C226.22,111.49,225,105.83,225,99"/>
	<rect id="rectangle14" x="224" y="107" fill="#70595E" width="7.5" height="12"/>
</g>
</svg>

<?xml version="1.0" encoding="UTF-8"?>
<!DOCTYPE svg PUBLIC "-//W3C//DTD SVG 1.1//EN" "http://www.w3.org/Graphics/SVG/1.1/DTD/svg11.dtd">

<svg version="1.1" xmlns="http://www.w3.org/2000/svg" xmlns:xlink="http://www.w3.org/1999/xlink" x="0px" y="0px"
	 preserveAspectRatio="xMidYMid meet" viewBox="0 0 800 300" width="800px" height="300px" enable-background="new 0 0 800 300" xml:space="preserve">
    
    
    <defs>
        <linearGradient id="gradient-oval10" x1="429.5" y1="10" x2="429.5" y2="30" gradientUnits="userSpaceOnUse" >
            <stop offset="0" stop-color="rgb(224, 235, 232)" stop-opacity="1" />
            <stop offset="1" stop-color="rgb(255, 255, 255)" stop-opacity="1" />
        </linearGradient>
        <linearGradient id="gradient-oval9" x1="228" y1="86" x2="228" y2="112" gradientUnits="userSpaceOnUse" >
            <stop offset="0" stop-color="rgb(224, 235, 232)" stop-opacity="1" />
            <stop offset="1" stop-color="rgb(255, 255, 255)" stop-opacity="1" />
        </linearGradient>
    </defs>
    <g id="flagLeft">
        <rect id="flagPoleLeft" stroke="none" fill="rgb(255, 255, 255)" x="65" y="83" width="4" height="144" />
        <path id="leftGreenFlag2" stroke="none" fill="rgb(244, 160, 160)" d="M 28.5,108.83 L 69.5,93.5 69.5,125.5 28.5,108.83 Z M 28.5,108.83" />
        <path id="leftGreenFlag" stroke="none" fill="rgb(88, 214, 185)" d="M 28.5,88.83 L 69.5,73.5 69.5,105.5 28.5,88.83 Z M 28.5,88.83" />
		
		
    </g>
    <g id="flagRight">
        <rect id="flagPoleLeft2" stroke="none" fill="rgb(255, 255, 255)" x="725" y="83" width="4" height="144" />
        <path id="leftGreenFlag3" stroke="none" fill="rgb(88, 214, 185)" d="M 688.5,108.83 L 729.5,93.5 729.5,125.5 688.5,108.83 Z M 688.5,108.83" />
        <path id="leftGreenFlag4" stroke="none" fill="rgb(244, 160, 160)" d="M 688.5,88.83 L 729.5,73.5 729.5,105.5 688.5,88.83 Z M 688.5,88.83" />
        

    </g>
    <g id="brownHouse">
        <rect id="rectangle15" stroke="none" fill="rgb(202, 138, 101)" x="411" y="37" width="23" height="23" />
        <rect id="rectangle16" stroke="none" fill="rgb(198, 247, 251)" x="414" y="41" width="6" height="6" />
        <rect id="rectangle17" stroke="none" fill="rgb(198, 247, 251)" x="426" y="41" width="6" height="6" />
        <rect id="rectangle18" stroke="none" fill="rgb(198, 247, 251)" x="414" y="51" width="6" height="6" />
        <rect id="rectangle19" stroke="none" fill="rgb(112, 89, 94)" x="426" y="51" width="6" height="9" />
        <path id="polygon2" stroke="none" fill="rgb(112, 89, 94)" d="M 422.5,25.38 L 437.94,37.79 407.06,37.79 422.5,25.38 Z M 422.5,25.38" />
        <path id="oval10" stroke="none" fill="url(#gradient-oval10)" d="M 427.01,19.3 C 427.1,13.79 428.3,9.64 429.67,10.02 431.05,10.41 432.09,15.19 431.99,20.7 431.9,26.21 430.7,30.36 429.33,29.98 428.02,29.61 427,25.25 427,20" />
        <rect id="rectangle20" stroke="none" fill="rgb(112, 89, 94)" x="426" y="26" width="6.5" height="9" />
    </g>
    <g id="hills">
        <path id="backHill" stroke="none" fill="rgb(62, 156, 135)" d="M 212,231 C 212,132.14 296.62,52 401,52 505.38,52 590,132.14 590,231 L 401,231 Z M 212,231" />
        <path id="whiteHill" stroke="none" fill="rgb(255, 255, 255)" d="M 333,383 C 333,259.29 437.09,159 565.5,159 693.91,159 798,259.29 798,383 L 565.5,383 Z M 333,383" />
        <path id="leftHill" stroke="none" fill="rgb(74, 177, 154)" d="M 3,368 C 3,238.21 116.94,133 257.5,133 398.06,133 512,238.21 512,368 L 257.5,368 Z M 3,368" />
    </g>
    <g id="yellowTree">
        <ellipse id="oval" stroke="none" fill="rgb(67, 159, 138)" cx="104" cy="215.5" rx="12" ry="5.5" />
        <path id="bezier" stroke="none" fill="rgb(246, 213, 70)" d="M 89.5,201.5 L 102.88,145.5 118.5,201.5 89.5,201.5 Z M 89.5,201.5" >
				</path>
        <rect id="rectangle" stroke="none" fill="rgb(175, 148, 108)" x="103" y="178" width="2" height="37" />
        <path id="bezier2" stroke="none" fill="rgb(175, 148, 108)" d="M 103.5,187.34 L 109.23,181.5 110.5,182.8 104.14,189.28 103.71,189.5 103.5,187.34 Z M 103.5,187.34" />
        <path id="bezier3" stroke="none" fill="rgb(175, 148, 108)" d="M 103.5,195.34 L 109.23,189.5 110.5,190.8 104.14,197.28 103.71,197.5 103.5,195.34 Z M 103.5,195.34" />
        <path id="bezier4" stroke="none" fill="rgb(175, 148, 108)" d="M 104.5,191.34 L 98.77,185.5 97.5,186.8 103.86,193.28 104.29,193.5 104.5,191.34 Z M 104.5,191.34" />
		
		
		
    </g>
    <g id="yellowTree2">
        <ellipse id="oval3" stroke="none" fill="rgb(67, 159, 138)" cx="178.25" cy="187" rx="10.25" ry="4" />
        <path id="bezier9" stroke="none" fill="rgb(244, 160, 160)" d="M 163.5,175.3 L 176.88,124.45 192.5,175.3 163.5,175.3 Z M 163.5,175.3" />
        <rect id="rectangle3" stroke="none" fill="rgb(175, 148, 108)" x="177" y="157" width="2" height="30" />
        <path id="bezier10" stroke="none" fill="rgb(175, 148, 108)" d="M 177.5,162.44 L 183.23,157.14 184.5,158.32 178.14,164.21 177.71,164.4 177.5,162.44 Z M 177.5,162.44" />
        <path id="bezier11" stroke="none" fill="rgb(175, 148, 108)" d="M 177.5,169.7 L 183.23,164.4 184.5,165.58 178.14,171.47 177.71,171.66 177.5,169.7 Z M 177.5,169.7" />
        <path id="bezier12" stroke="none" fill="rgb(175, 148, 108)" d="M 178.5,166.07 L 172.77,160.77 171.5,161.95 177.86,167.84 178.29,168.03 178.5,166.07 Z M 178.5,166.07" />
    </g>
    <g id="yellowTree3">
        <ellipse id="oval4" stroke="none" fill="rgb(224, 235, 232)" cx="602.75" cy="195" rx="10.75" ry="4" />
        <path id="bezier13" stroke="none" fill="rgb(244, 160, 160)" d="M 588.5,183.3 L 601.88,132.45 617.5,183.3 588.5,183.3 Z M 588.5,183.3" />
        <rect id="rectangle4" stroke="none" fill="rgb(175, 148, 108)" x="602" y="165" width="2" height="30" />
        <path id="bezier14" stroke="none" fill="rgb(175, 148, 108)" d="M 602.5,170.44 L 608.23,165.14 609.5,166.32 603.14,172.21 602.71,172.4 602.5,170.44 Z M 602.5,170.44" />
        <path id="bezier15" stroke="none" fill="rgb(175, 148, 108)" d="M 602.5,177.7 L 608.23,172.4 609.5,173.58 603.14,179.47 602.71,179.66 602.5,177.7 Z M 602.5,177.7" />
        <path id="bezier16" stroke="none" fill="rgb(175, 148, 108)" d="M 603.5,174.07 L 597.77,168.77 596.5,169.95 602.86,175.84 603.29,176.03 603.5,174.07 Z M 603.5,174.07" />
    </g>
    <g id="yellowTree4">
        <ellipse id="oval5" stroke="none" fill="rgb(224, 235, 232)" cx="679" cy="211" rx="10" ry="4" />
        <path id="bezier17" stroke="none" fill="rgb(246, 213, 70)" d="M 664.5,197.5 L 677.88,141.5 693.5,197.5 664.5,197.5 Z M 664.5,197.5" />
        <rect id="rectangle5" stroke="none" fill="rgb(175, 148, 108)" x="678" y="174" width="2" height="37" />
        <path id="bezier18" stroke="none" fill="rgb(175, 148, 108)" d="M 678.5,183.34 L 684.23,177.5 685.5,178.8 679.14,185.28 678.71,185.5 678.5,183.34 Z M 678.5,183.34" />
        <path id="bezier19" stroke="none" fill="rgb(175, 148, 108)" d="M 678.5,191.34 L 684.23,185.5 685.5,186.8 679.14,193.28 678.71,193.5 678.5,191.34 Z M 678.5,191.34" />
        <path id="bezier20" stroke="none" fill="rgb(175, 148, 108)" d="M 679.5,187.34 L 673.77,181.5 672.5,182.8 678.86,189.28 679.29,189.5 679.5,187.34 Z M 679.5,187.34" />
    </g>
    <g id="darkGreenTree2">
        <ellipse id="oval6" stroke="none" fill="rgb(224, 235, 232)" cx="645" cy="249" rx="12" ry="4" />
        <path id="bezier21" stroke="none" fill="rgb(33, 125, 104)" d="M 627.5,238.51 L 643.88,176.49 663,238.51 627.5,238.51 Z M 627.5,238.51" />
        <rect id="rectangle6" stroke="none" fill="rgb(175, 148, 108)" x="644" y="216" width="2" height="33" />
        <path id="bezier22" stroke="none" fill="rgb(175, 148, 108)" d="M 644.5,222.75 L 650.23,216.99 651.5,218.27 645.14,224.68 644.71,224.89 644.5,222.75 Z M 644.5,222.75" />
        <path id="bezier23" stroke="none" fill="rgb(175, 148, 108)" d="M 644.5,230.65 L 650.23,224.89 651.5,226.17 645.14,232.58 644.71,232.79 644.5,230.65 Z M 644.5,230.65" />
        <path id="bezier24" stroke="none" fill="rgb(175, 148, 108)" d="M 645.5,226.7 L 639.77,220.94 638.5,222.22 644.86,228.63 645.29,228.84 645.5,226.7 Z M 645.5,226.7" />
    </g>
    <g id="yellowTree5">
        <ellipse id="oval2" stroke="none" fill="rgb(67, 159, 138)" cx="143" cy="199.5" rx="12" ry="5.5" />
        <path id="bezier5" stroke="none" fill="rgb(33, 125, 104)" d="M 127.5,185.5 L 142.27,116.5 159.5,185.5 127.5,185.5 Z M 127.5,185.5" />
        <rect id="rectangle2" stroke="none" fill="rgb(175, 148, 108)" x="142" y="162" width="2" height="37" />
        <path id="bezier6" stroke="none" fill="rgb(175, 148, 108)" d="M 142.5,171.34 L 148.23,165.5 149.5,166.8 143.14,173.28 142.71,173.5 142.5,171.34 Z M 142.5,171.34" />
        <path id="bezier7" stroke="none" fill="rgb(175, 148, 108)" d="M 142.5,179.34 L 148.23,173.5 149.5,174.8 143.14,181.28 142.71,181.5 142.5,179.34 Z M 142.5,179.34" />
        <path id="bezier8" stroke="none" fill="rgb(175, 148, 108)" d="M 143.5,175.34 L 137.77,169.5 136.5,170.8 142.86,177.28 143.29,177.5 143.5,175.34 Z M 143.5,175.34" />
    </g>
    <g id="yellowTree6">
        <ellipse id="oval7" stroke="none" fill="rgb(55, 140, 121)" cx="349" cy="90.5" rx="12" ry="5.5" />
        <path id="bezier25" stroke="none" fill="rgb(143, 209, 130)" d="M 333.5,76.5 L 348.27,7.5 365.5,76.5 333.5,76.5 Z M 333.5,76.5" />
        <rect id="rectangle7" stroke="none" fill="rgb(175, 148, 108)" x="348" y="53" width="2" height="37" />
        <path id="bezier26" stroke="none" fill="rgb(175, 148, 108)" d="M 348.5,62.34 L 354.23,56.5 355.5,57.8 349.14,64.28 348.71,64.5 348.5,62.34 Z M 348.5,62.34" />
        <path id="bezier27" stroke="none" fill="rgb(175, 148, 108)" d="M 348.5,70.34 L 354.23,64.5 355.5,65.8 349.14,72.28 348.71,72.5 348.5,70.34 Z M 348.5,70.34" />
        <path id="bezier28" stroke="none" fill="rgb(175, 148, 108)" d="M 349.5,66.34 L 343.77,60.5 342.5,61.8 348.86,68.28 349.29,68.5 349.5,66.34 Z M 349.5,66.34" />
    </g>
    <g id="yellowTree7">
        <ellipse id="oval8" stroke="none" fill="rgb(55, 140, 121)" cx="492.25" cy="104" rx="10.25" ry="4" />
        <path id="bezier29" stroke="none" fill="rgb(33, 125, 104)" d="M 477.5,92.3 L 490.88,41.45 506.5,92.3 477.5,92.3 Z M 477.5,92.3" />
        <rect id="rectangle8" stroke="none" fill="rgb(175, 148, 108)" x="491" y="74" width="2" height="30" />
        <path id="bezier30" stroke="none" fill="rgb(175, 148, 108)" d="M 491.5,79.44 L 497.23,74.14 498.5,75.32 492.14,81.21 491.71,81.4 491.5,79.44 Z M 491.5,79.44" />
        <path id="bezier31" stroke="none" fill="rgb(175, 148, 108)" d="M 491.5,86.7 L 497.23,81.4 498.5,82.58 492.14,88.47 491.71,88.66 491.5,86.7 Z M 491.5,86.7" />
        <path id="bezier32" stroke="none" fill="rgb(175, 148, 108)" d="M 492.5,83.07 L 486.77,77.77 485.5,78.95 491.86,84.84 492.29,85.03 492.5,83.07 Z M 492.5,83.07" />
    </g>
    <g id="blueHouse">
        <rect id="rectangle9" stroke="none" fill="rgb(109, 160, 171)" x="204" y="121" width="30" height="30" />
        <rect id="rectangle10" stroke="none" fill="rgb(198, 247, 251)" x="208" y="126" width="8" height="8" />
        <rect id="rectangle11" stroke="none" fill="rgb(198, 247, 251)" x="223" y="126" width="8" height="8" />
        <rect id="rectangle12" stroke="none" fill="rgb(198, 247, 251)" x="208" y="139" width="8" height="8" />
        <rect id="rectangle13" stroke="none" fill="rgb(112, 89, 94)" x="223" y="139" width="8" height="12" />
        <path id="polygon" stroke="none" fill="rgb(112, 89, 94)" d="M 219,106 L 238.92,122.12 199.08,122.12 219,106 Z M 219,106" />
        <path id="oval9" stroke="none" fill="url(#gradient-oval9)" d="M 225.01,98.09 C 225.12,90.93 226.56,85.53 228.21,86.03 229.86,86.53 231.11,92.74 230.99,99.91 230.88,107.07 229.44,112.47 227.79,111.97 226.22,111.49 225,105.83 225,99" />
        <rect id="rectangle14" stroke="none" fill="rgb(112, 89, 94)" x="224" y="107" width="7.5" height="12" />
    </g>
</svg>
